X: 605
T: The Maids of Ardagh
B: good tune book
B: tunes
M:2/4
R: polka
Q: 1/4=100
K:Dmajor
V:1 
|:FA/A/ BA|dd/e/ f2|fe/f/ gc|ed BA|
 FA/A/ BA|dd/e/ f2|fe/f/ gc|ed d2:|
 |:ef/e/ ce|f/f/e a2|ef/e/ ce|fe c/B/A|
 ef/e/ ce|f/f/e a2|ef/e/ dB/c/|1 BA A2:|2 BA AG||
% abcbook-tune_id 63dce613593d5b41b02d5d7f
% abcbook-tune_composer_id 
% abcbook-link-0 https://www.youtube.com/watch?v=88i2K4tv5dA
% abcbook-boost 0
% abcbook-difficulty 0
% abcbook-tags good tune book
% abcbook-tablature 
% abcbook-transpose 
% abcbook-tuning 
% abcbook-lastupdated 1675480907585
% abcbook-soundfonts 
% abcbook-repeats 1


